X:1399
T:Kalle Rantanens polka
R:Polka
S:Spelad i Viltstråk på 1970-talet
O:Finland (Viitasaari)  
Z:ABC-transkribering av Lennart Sohlman
M:2/4
L:1/16
Q:1/4=120
K:G
"G"d2Bd "C"gfed|"G"B2G2 BGBd|"Am"(3(cdc)A2 "D7"(3(fgf)d2|"G"gfga bage|!
"G"d2Bd "C"gfed|"G"B2G2 BGBd|"Am"(3(cdc)A2 "D7"(3(fgf)d2|"G"gfga g4::!
"G"b2ga g2fg|"Am"{fg}f2e2 e^dea|"D7"a2f2 fdfa|"G"a2g2 {a}gfga|!
"G"b2ga g2fg|"Am"{fg}f2e2 e^dea|"D7"a2f2 {g}fdfa|"G"aggf g4:|]

